src/lib/packages/icons/src/assets/line/hand-grip.svg

<svg width="24" height="24" viewBox="0 0 24 24" fill="none" xmlns="http://www.w3.org/2000/svg">
<path d="M21.66 18.27L19.47 10.1C19.35 9.65002 19.06 9.28001 18.66 9.04001C18.26 8.80001 17.7901 8.75001 17.3401 8.87001L17.05 8.95001L15.4601 4.56001C14.8901 3.21001 13.56 2.26001 12 2.26001C10.44 2.26001 9.22003 3.15001 8.62003 4.42001C8.59003 4.46001 8.56001 4.50002 8.54001 4.55002L7.56003 7.25002C7.42003 7.64002 7.62004 8.07002 8.01004 8.21002C8.09004 8.24002 8.18005 8.25002 8.27005 8.25002C8.49005 8.25002 8.70006 8.15001 8.84006 7.98001C9.50006 9.04001 10.67 9.75002 12.01 9.75002C13.35 9.75002 14.47 9.07002 15.14 8.05002L15.61 9.33002L15.36 9.40001C14.91 9.52001 14.54 9.81002 14.31 10.21C14.08 10.61 14.02 11.08 14.14 11.53L16.33 19.71C16.52 20.42 16.98 21.02 17.62 21.39C18.05 21.64 18.52 21.76 19 21.76C19.24 21.76 19.48 21.73 19.72 21.66C20.43 21.47 21.0301 21.01 21.4001 20.37C21.7701 19.73 21.87 18.99 21.68 18.27H21.66ZM14.25 6.00002C14.25 7.24002 13.24 8.25002 12 8.25002C10.76 8.25002 9.75003 7.24002 9.75003 6.00002C9.75003 4.76002 10.76 3.75002 12 3.75002C12.92 3.75002 13.72 4.31002 14.06 5.11002L14.0901 5.18001C14.1901 5.43001 14.25 5.71002 14.25 6.00002ZM20.08 19.62C19.91 19.91 19.64 20.12 19.31 20.21C18.98 20.3 18.64 20.25 18.35 20.08C18.06 19.91 17.85 19.64 17.76 19.31L15.57 11.13C15.54 11 15.61 10.88 15.74 10.84L17.73 10.31C17.73 10.31 17.77 10.31 17.79 10.31C17.84 10.31 17.88 10.33 17.91 10.34C17.95 10.36 18 10.4 18.0201 10.48L20.2101 18.65C20.3001 18.98 20.25 19.32 20.08 19.61V19.62ZM8.64005 9.40001L6.66 8.87001C6.21 8.75001 5.74006 8.81001 5.34006 9.04001C4.94006 9.27001 4.65006 9.65001 4.53006 10.09L2.34006 18.26C2.15006 18.97 2.25003 19.72 2.62003 20.36C2.99003 21 3.58002 21.46 4.30002 21.65C4.54002 21.71 4.78005 21.75 5.02005 21.75C5.50005 21.75 5.97005 21.62 6.40005 21.38C7.04005 21.01 7.50003 20.42 7.69003 19.7L9.88004 11.53C10 11.08 9.94005 10.61 9.71005 10.21C9.48005 9.81002 9.1 9.52001 8.66 9.40001H8.64005ZM6.23001 19.31C6.14001 19.64 5.93004 19.91 5.64004 20.08C5.35004 20.25 5.01002 20.29 4.68002 20.21C4.35002 20.12 4.08 19.91 3.91 19.62C3.74 19.33 3.70006 18.99 3.78006 18.66L5.97 10.48C5.99 10.4 6.04005 10.36 6.08005 10.34C6.10005 10.33 6.14004 10.31 6.20004 10.31C6.22004 10.31 6.24004 10.31 6.26004 10.31L8.24002 10.84C8.37002 10.87 8.44 11 8.41 11.13L6.22 19.31H6.23001Z" fill="currentColor"/>
</svg>

<svg xmlns="http://www.w3.org/2000/svg" width="24" height="24" fill="none"><path fill="currentColor" d="m21.66 18.27-2.19-8.17a1.76 1.76 0 0 0-.81-1.06c-.4-.24-.87-.29-1.32-.17l-.29.08-1.59-4.39c-.57-1.35-1.9-2.3-3.46-2.3s-2.78.89-3.38 2.16c-.03.04-.06.08-.08.13l-.98 2.7c-.14.39.06.82.45.96.08.03.17.04.26.04.22 0 .43-.1.57-.27a3.73 3.73 0 0 0 3.17 1.77c1.34 0 2.46-.68 3.13-1.7l.47 1.28-.25.07a1.736 1.736 0 0 0-1.22 2.13l2.19 8.18c.19.71.65 1.31 1.29 1.68a2.722 2.722 0 0 0 2.1.27c.71-.19 1.31-.65 1.68-1.29.37-.64.47-1.38.28-2.1h-.02ZM14.25 6c0 1.24-1.01 2.25-2.25 2.25S9.75 7.24 9.75 6 10.76 3.75 12 3.75c.92 0 1.72.56 2.06 1.36l.03.07c.1.25.16.53.16.82Zm5.83 13.62c-.17.29-.44.5-.77.59a1.273 1.273 0 0 1-1.55-.9l-2.19-8.18a.24.24 0 0 1 .17-.29l1.99-.53h.06c.05 0 .09.02.12.03.04.02.09.06.11.14l2.19 8.17c.09.33.04.67-.13.96v.01ZM8.64 9.4l-1.98-.53a1.736 1.736 0 0 0-2.13 1.22l-2.19 8.17c-.19.71-.09 1.46.28 2.1.37.64.96 1.1 1.68 1.29.24.06.48.1.72.1.48 0 .95-.13 1.38-.37.64-.37 1.1-.96 1.29-1.68l2.19-8.17A1.737 1.737 0 0 0 8.66 9.4h-.02Zm-2.41 9.91c-.09.33-.3.6-.59.77-.29.17-.63.21-.96.13-.33-.09-.6-.3-.77-.59-.17-.29-.21-.63-.13-.96l2.19-8.18c.02-.08.07-.12.11-.14.02-.01.06-.03.12-.03h.06l1.98.53c.13.03.2.16.17.29l-2.19 8.18h.01Z"/></svg>
